src/assets/outline/HomeTrendDown.svg

<svg width="24" height="24" viewBox="0 0 24 24"  xmlns="http://www.w3.org/2000/svg">
<path d="M17.79 22.7402H6.21C3.47 22.7402 1.25 20.5102 1.25 17.7702V10.3602C1.25 9.00021 2.09 7.29021 3.17 6.45021L8.56 2.25021C10.18 0.990208 12.77 0.930208 14.45 2.11021L20.63 6.44021C21.82 7.27021 22.75 9.05021 22.75 10.5002V17.7802C22.75 20.5102 20.53 22.7402 17.79 22.7402ZM9.48 3.43021L4.09 7.63021C3.38 8.19021 2.75 9.46021 2.75 10.3602V17.7702C2.75 19.6802 4.3 21.2402 6.21 21.2402H17.79C19.7 21.2402 21.25 19.6902 21.25 17.7802V10.5002C21.25 9.54021 20.56 8.21021 19.77 7.67021L13.59 3.34021C12.45 2.54021 10.57 2.58021 9.48 3.43021Z" />
<path d="M16.5002 17.2504C16.3102 17.2504 16.1202 17.1804 15.9702 17.0304L12.4202 13.4804L11.3302 15.1204C11.2102 15.3104 11.0002 15.4304 10.7802 15.4504C10.5502 15.4704 10.3302 15.3904 10.1802 15.2304L6.9802 12.0304C6.6902 11.7404 6.6902 11.2604 6.9802 10.9704C7.2702 10.6804 7.7502 10.6804 8.0402 10.9704L10.5902 13.5204L11.6802 11.8804C11.8002 11.6904 12.0102 11.5704 12.2302 11.5504C12.4602 11.5304 12.6802 11.6104 12.8302 11.7704L17.0302 15.9704C17.3202 16.2604 17.3202 16.7404 17.0302 17.0304C16.8802 17.1804 16.6902 17.2504 16.5002 17.2504Z" />
<path d="M16.5 17.25H14.5C14.09 17.25 13.75 16.91 13.75 16.5C13.75 16.09 14.09 15.75 14.5 15.75H15.75V14.5C15.75 14.09 16.09 13.75 16.5 13.75C16.91 13.75 17.25 14.09 17.25 14.5V16.5C17.25 16.91 16.91 17.25 16.5 17.25Z" />
</svg>

<?xml version="1.0" encoding="UTF-8"?>
<svg width="24" height="24" viewBox="0 0 24 24" xmlns="http://www.w3.org/2000/svg">
 <path d="m17.79 22.74h-11.58c-2.74 0-4.96-2.23-4.96-4.97v-7.41c0-1.36 0.84-3.07 1.92-3.91l5.39-4.2c1.62-1.26 4.21-1.32 5.89-0.14l6.18 4.33c1.19 0.83 2.12 2.61 2.12 4.06v7.28c0 2.73-2.22 4.96-4.96 4.96zm-8.31-19.31-5.39 4.2c-0.71 0.56-1.34 1.83-1.34 2.73v7.41c0 1.91 1.55 3.47 3.46 3.47h11.58c1.91 0 3.46-1.55 3.46-3.46v-7.28c0-0.95999-0.69-2.29-1.48-2.83l-6.18-4.33c-1.14-0.8-3.02-0.76-4.11 0.09z"/>
 <path d="m16.5 17.25c-0.19 0-0.38-0.07-0.53-0.22l-3.55-3.55-1.09 1.64c-0.12 0.19-0.33 0.31-0.55 0.33-0.23 0.02-0.45-0.06-0.6-0.22l-3.2-3.2c-0.29-0.29-0.29-0.77 0-1.06s0.77-0.29 1.06 0l2.55 2.55 1.09-1.64c0.12-0.19 0.33-0.31 0.55-0.33 0.23-0.02 0.45 0.06 0.6 0.22l4.2 4.2c0.29 0.29 0.29 0.77 0 1.06-0.15 0.15-0.34 0.22-0.53 0.22z"/>
 <path d="m16.5 17.25h-2c-0.41 0-0.75-0.34-0.75-0.75s0.34-0.75 0.75-0.75h1.25v-1.25c0-0.41 0.34-0.75 0.75-0.75s0.75 0.34 0.75 0.75v2c0 0.41-0.34 0.75-0.75 0.75z"/>
</svg>
